assets/logos/icons/file-pdf.svg

<svg xmlns="http://www.w3.org/2000/svg" xmlns:xlink="http://www.w3.org/1999/xlink" width="24" height="24" viewBox="0 0 24 24">
  <defs>
    <path id="file-pdf-a" d="M18.7999999,6 L18.7999999,4 C18.7999999,2.9 17.8549999,2 16.6999999,2 L4.09999995,2 C2.94499995,2 1.99999995,2.9 1.99999995,4 L1.99999995,20 C1.99999995,21.1 2.94499995,22 4.09999995,22 L16.6999999,22 C17.8549999,22 18.7999999,21.1 18.7999999,20 L18.7999999,18 L16.6999999,18 L16.6999999,20 L4.09999995,20 L4.09999995,4 L16.6999999,4 L16.6999999,6 L18.7999999,6 Z M6.19999995,9.4 L8.82499995,9.4 C10.0849999,9.4 11.0299999,10.2 11.0299999,11.4 C11.0299999,12.6 10.1899999,13.4 8.82499995,13.4 L7.77499995,13.4 L7.77499995,15 L6.19999995,15 L6.19999995,9.4 Z M8.71999995,10.8 L7.77499995,10.8 L7.77499995,12 L8.71999995,12 C9.13999995,12 9.34999995,11.7 9.34999995,11.4 C9.45499995,11 9.13999995,10.8 8.71999995,10.8 Z M12.0799999,9.4 L14.3899999,9.4 C16.1749999,9.4 17.5399999,10.6 17.5399999,12.2 C17.5399999,13.8 16.2799999,15 14.3899999,15 L12.0799999,15 L12.0799999,9.4 Z M14.3899999,10.8 L13.7599999,10.8 L13.7599999,13.7 L14.3899999,13.7 C15.2299999,13.7 15.8599999,13.1 15.8599999,12.3 C15.8599999,11.5 15.2299999,10.8 14.3899999,10.8 Z M18.4849999,9.4 L22.9999999,9.4 L22.9999999,10.8 L20.0599999,10.8 L20.0599999,11.7 L22.3699999,11.7 L22.3699999,13 L20.0599999,13 L20.0599999,15 L18.4849999,15 L18.4849999,9.4 Z"/>
  </defs>
  <use fill="#492F5C" fill-rule="evenodd" xlink:href="#file-pdf-a"/>
</svg>

<svg height="24" viewBox="0 0 24 24" width="24" xmlns="http://www.w3.org/2000/svg"><path d="m18.7999999 6v-2c0-1.1-.945-2-2.1-2h-12.59999995c-1.155 0-2.1.9-2.1 2v16c0 1.1.945 2 2.1 2h12.59999995c1.155 0 2.1-.9 2.1-2v-2h-2.1v2h-12.59999995v-16h12.59999995v2zm-12.59999995 3.4h2.625c1.25999995 0 2.20499995.8 2.20499995 2s-.84 2-2.20499995 2h-1.05v1.6h-1.575zm2.52 1.4h-.945v1.2h.945c.42 0 .63-.3.63-.6.105-.4-.21-.6-.63-.6zm3.35999995-1.4h2.31c1.785 0 3.15 1.2 3.15 2.8s-1.26 2.8-3.15 2.8h-2.31zm2.31 1.4h-.63v2.9h.63c.84 0 1.47-.6 1.47-1.4s-.63-1.5-1.47-1.5zm4.095-1.4h4.515v1.4h-2.94v.9h2.31v1.3h-2.31v2h-1.575z" fill="#492f5c" fill-rule="evenodd"/></svg>
